X: 1
T: Spel-Gulles polska
O: Sweden
R: hambo-polska
Z: 2007 John Chambers <jc@trillian.mit.edu>
S: handwritten MS labelled "Matt F" (probably Matt Fichtenbaum)
M: 3/4
L: 1/8
K: Dm
|: "Dm"{A}d2 d^c d>e | f2 fe (3d^cd | "A7"e2 e^c (3A=Bc |1,3 "Dm"d2 d>A F>A :|2,2 "Dm"d2 d4 :|
|: "F"a2 fa f>a | (3aga b>a g>f | "A7"g2 eg e>g | (3gfg a>g f>e |
| "Dm"d2 d^c d>e | f2 fe (3d^cd | "A7"e2 e^c (3A=Bc | "Dm"d2 d4 :|
